svg/24/share.svg

<svg width="24" height="24" viewBox="0 0 24 24" fill="currentColor" xmlns="http://www.w3.org/2000/svg"><path d="M9.53033 6.28016C9.23744 6.57306 8.76256 6.57306 8.46967 6.28016C8.17678 5.98727 8.17678 5.5124 8.46967 5.2195L11.4749 2.2143C11.7678 1.92141 12.2426 1.92141 12.5355 2.2143L15.5407 5.2195C15.8336 5.5124 15.8336 5.98727 15.5407 6.28016C15.2478 6.57306 14.773 6.57306 14.4801 6.28016L12.75 4.55009L12.75 14.2498C12.75 14.664 12.4142 14.9998 12 14.9998C11.5858 14.9998 11.25 14.664 11.25 14.2498L11.25 4.56049L9.53033 6.28016Z"/><path d="M9 8.74983C9 8.33562 8.66421 7.99983 8.25 7.99983H6C4.89543 7.99983 4 8.89526 4 9.99983V18.9998C4 20.1044 4.89543 20.9998 6 20.9998H18C19.1046 20.9998 20 20.1044 20 18.9998V9.99983C20 8.89526 19.1046 7.99983 18 7.99983H15.75C15.3358 7.99983 15 8.33562 15 8.74983C15 9.16405 15.3358 9.49983 15.75 9.49983H18C18.2761 9.49983 18.5 9.72369 18.5 9.99983V18.9998C18.5 19.276 18.2761 19.4998 18 19.4998H6C5.72386 19.4998 5.5 19.276 5.5 18.9998V9.99983C5.5 9.72369 5.72386 9.49983 6 9.49983H8.25C8.66421 9.49983 9 9.16405 9 8.74983Z"/></svg>

<svg xmlns="http://www.w3.org/2000/svg" width="24" height="24" fill="currentColor" viewBox="0 0 24 24">
  <path d="M9.53 6.28a.75.75 0 1 1-1.06-1.06l3.005-3.006a.75.75 0 0 1 1.06 0l3.006 3.006a.75.75 0 0 1-1.06 1.06L12.75 4.55v9.7a.75.75 0 0 1-1.5 0V4.56L9.53 6.28Z"/>
  <path d="M9 8.75A.75.75 0 0 0 8.25 8H6a2 2 0 0 0-2 2v9a2 2 0 0 0 2 2h12a2 2 0 0 0 2-2v-9a2 2 0 0 0-2-2h-2.25a.75.75 0 0 0 0 1.5H18a.5.5 0 0 1 .5.5v9a.5.5 0 0 1-.5.5H6a.5.5 0 0 1-.5-.5v-9a.5.5 0 0 1 .5-.5h2.25A.75.75 0 0 0 9 8.75Z"/>
</svg>
